X: 305730
T: COTILLION No. 16. LONG ISLAND SETT tune 2
C:
%R: reel
B: Elias Howe "The Musician's Companion" Part 3 1844 p.114 #2
S: http://imslp.org/wiki/The_Musician's_Companion_(Howe,_Elias)
Z: 2015 John Chambers <jc:trillian.mit.edu>
M: 2/4
L: 1/16
K: C
% - - - - - - - - - - - - - - - - - - - - - - - - - - - - -
gf |\
e2c2 f2d2 | geag fedc | Acde fdAd | cBdB Gg^f=f |\
e2c2 f2d2 | geag fedc | Acdf ecdB | c2e2c2 H|]
e>f |\
g<~c{d}c2 G<~c{d}c2 | f<~d{e}d2 A<~d{e}d2 | g<~c{d}c2 a<~d{e}d2 | A<~d{e}d2 B<~G{A}G2 |\
g<~c{d}c2 G<~c{d}c2 | f<~d{e}d2 A<~d{e}d2 | g<~c{d}c2 abeg | faBd "^D.C."c2 :|
% - - - - - - - - - - Dance description - - - - - - - - - -
% - - - - - - - - - - - - - - - - - - - - - - - - - - - - -

